icons/evolvere-blue-folders-flat-vivid-dark-fallback/apps/64/kdevelop.svg

<?xml version="1.0" encoding="UTF-8" standalone="no"?>
<!-- Created with Inkscape (http://www.inkscape.org/) -->

<svg
   xmlns:dc="http://purl.org/dc/elements/1.1/"
   xmlns:cc="http://creativecommons.org/ns#"
   xmlns:rdf="http://www.w3.org/1999/02/22-rdf-syntax-ns#"
   xmlns:svg="http://www.w3.org/2000/svg"
   xmlns="http://www.w3.org/2000/svg"
   xmlns:sodipodi="http://sodipodi.sourceforge.net/DTD/sodipodi-0.dtd"
   xmlns:inkscape="http://www.inkscape.org/namespaces/inkscape"
   width="64"
   height="64"
   id="svg13094"
   version="1.1"
   inkscape:version="0.91+devel r"
   sodipodi:docname="kdevelop.svg">
  <sodipodi:namedview
     id="base"
     pagecolor="#ffffff"
     bordercolor="#666666"
     borderopacity="1.0"
     inkscape:pageopacity="0"
     inkscape:pageshadow="2"
     inkscape:zoom="11.313709"
     inkscape:cx="-1.4722079"
     inkscape:cy="31.772989"
     inkscape:document-units="px"
     inkscape:current-layer="g4166"
     showgrid="true"
     inkscape:snap-bbox="true"
     inkscape:bbox-paths="true"
     inkscape:bbox-nodes="true"
     inkscape:snap-bbox-edge-midpoints="true"
     inkscape:snap-bbox-midpoints="true"
     inkscape:object-paths="true"
     inkscape:snap-intersection-paths="true"
     inkscape:object-nodes="true"
     inkscape:snap-smooth-nodes="true"
     inkscape:snap-midpoints="true"
     inkscape:snap-object-midpoints="true"
     inkscape:snap-center="true"
     showguides="true"
     inkscape:guide-bbox="true"
     inkscape:window-width="1920"
     inkscape:window-height="1023"
     inkscape:window-x="-10"
     inkscape:window-y="35"
     inkscape:window-maximized="1"
     inkscape:snap-global="true"
     fit-margin-top="0"
     fit-margin-left="0"
     fit-margin-right="0"
     fit-margin-bottom="0"
     showborder="true"
     inkscape:showpageshadow="false"
     inkscape:snap-page="true">
    <inkscape:grid
       type="xygrid"
       id="grid3075"
       empspacing="5"
       visible="true"
       enabled="true"
       snapvisiblegridlinesonly="true"
       originx="1.6362304e-08px"
       originy="18px" />
  </sodipodi:namedview>
  <defs
     id="defs13096" />
  <metadata
     id="metadata13099">
    <rdf:RDF>
      <cc:Work
         rdf:about="">
        <dc:format>image/svg+xml</dc:format>
        <dc:type
           rdf:resource="http://purl.org/dc/dcmitype/StillImage" />
        <dc:title></dc:title>
      </cc:Work>
    </rdf:RDF>
  </metadata>
  <path
     id="path6538"
     d="m 0,4 0,30 0,28 2,2 30,0 30,0 2,-2 L 64,34 64,4 32,4 0,4 Z"
     style="color:#000000;display:inline;overflow:visible;visibility:visible;fill:#5da422;fill-opacity:1;fill-rule:nonzero;stroke:none;stroke-width:2.28571415;marker:none;enable-background:accumulate"
     inkscape:connector-curvature="0" />
  <path
     inkscape:connector-curvature="0"
     style="color:#000000;display:inline;overflow:visible;visibility:visible;fill:#a0e043;fill-opacity:1;fill-rule:nonzero;stroke:none;marker:none;enable-background:accumulate"
     d="M 2,0 0,1 0,4 19.5625,4 39.125,4 64,4 64,1 62,0 39.125,0 19.5625,0 2,0 Z"
     id="path6688" />
  <path
     d="M 64,6 62,4 64,3 Z"
     id="path3028"
     style="fill:#7dc032;fill-opacity:1"
     inkscape:connector-curvature="0" />
  <g
     id="g3043"
     inkscape:export-filename="folder.png"
     inkscape:export-xdpi="90"
     inkscape:export-ydpi="90"
     transform="translate(-0.62500009,0.082283)" />
  <g
     id="scalable"
     transform="matrix(1.0385892,0,0,1.0385892,1214.7222,1878.8121)"
     inkscape:label="#g3701"
     style="fill:#ffffff" />
  <path
     style="fill:#aee560;fill-opacity:1;fill-rule:nonzero"
     d="M 0,3 0,6 2,4 Z"
     id="path4298"
     inkscape:connector-curvature="0"
     sodipodi:nodetypes="cccc" />
  <g
     id="g4166">
    <path
       style="color:#000000;fill:#2d4c00;fill-opacity:0.63595706;fill-rule:nonzero;stroke:none;stroke-width:2;marker:none;visibility:visible;display:inline;overflow:visible;enable-background:accumulate"
       d="m 17.863539,10.402984 -3.298508,3.298508 4.748402,7.466951 c -0.09539,0.154594 -0.198924,0.313502 -0.28998,0.471215 -0.934353,1.618348 -1.587213,3.30909 -1.993603,5.03838 l -8.6268661,1.921109 0,4.639659 8.6631131,1.921109 c 0.45685,1.937103 1.192108,3.838854 2.247336,5.545842 l -4.748402,7.430704 3.298508,3.298508 7.466951,-4.748402 c 0.158426,0.09784 0.308861,0.196244 0.471215,0.28998 1.618349,0.934353 3.30909,1.587213 5.03838,1.993603 l 1.921109,8.626866 4.639659,0 1.921109,-8.663113 c 1.937104,-0.45685 3.838854,-1.192108 5.545843,-2.247336 l 7.430703,4.748402 3.298508,-3.298508 -4.748402,-7.466951 -3.153517,-3.914713 c -2.211997,4.759378 -7.020138,8.083157 -12.614073,8.083157 -7.687239,0 -13.918978,-6.231739 -13.918978,-13.918978 0,-5.593935 3.323779,-10.402076 8.083157,-12.614073 L 25.33049,15.151385 z"
       id="path3010"
       inkscape:connector-curvature="0"
       sodipodi:nodetypes="cccsccccccccscccccccccssccc" />
    <path
       transform="matrix(0.70710678,-0.70710678,0.70710678,0.70710678,0,0)"
       style="color:#000000;display:inline;overflow:visible;visibility:visible;opacity:1;fill:#2d4c00;fill-opacity:0.21645795;fill-rule:nonzero;stroke:none;stroke-width:2;stroke-linecap:butt;stroke-linejoin:miter;stroke-miterlimit:4;stroke-dasharray:none;stroke-dashoffset:0;stroke-opacity:1;marker:none;enable-background:accumulate"
       inkscape:transform-center-x="-2.4748743"
       inkscape:transform-center-y="2.4748741"
       d="m 2.8284273,33.669048 c 7.2019997,0 12.9999997,5.798 12.9999997,13 l 0,7 c 0,7.202 -5.798,13 -12.9999997,13 -7.202,0 -13.0000003,-5.798 -13.0000003,-13 l 0,-7 c 0,-7.202 5.7980003,-13 13.0000003,-13 z"
       id="rect3008" />
    <path
       transform="matrix(0.67994624,0,0,0.67994624,13.322742,8.4807502)"
       style="color:#000000;display:inline;overflow:visible;visibility:visible;opacity:1;fill:#f3faea;fill-opacity:1;fill-rule:nonzero;stroke:none;stroke-width:3.36161017;stroke-linecap:butt;stroke-linejoin:miter;stroke-miterlimit:4;stroke-dasharray:none;stroke-dashoffset:0;stroke-opacity:1;marker:none;enable-background:accumulate"
       d="M 51,33 A 19,19 0 0 1 32,52 19,19 0 0 1 13,33 19,19 0 0 1 32,14 19,19 0 0 1 51,33 Z"
       id="path3977" />
    <path
       inkscape:transform-center-y="0.66057241"
       transform="matrix(0.52305633,-0.52305633,0.52305633,0.52305633,-3.809195,37.494286)"
       inkscape:transform-center-x="0.66057258"
       d="m 42,31 c 0,0.484974 -10.08,6.304665 -10.5,6.062178 -0.42,-0.242487 -0.42,-11.881869 0,-12.124356 C 31.92,24.695335 42,30.515026 42,31 z"
       inkscape:randomized="0"
       inkscape:rounded="0.04"
       inkscape:flatsided="true"
       sodipodi:arg2="1.0471976"
       sodipodi:arg1="0"
       sodipodi:r2="3.5"
       sodipodi:r1="7"
       sodipodi:cy="31"
       sodipodi:cx="35"
       sodipodi:sides="3"
       id="path4001"
       style="color:#000000;fill:#2d4c00;fill-opacity:0.79874778;fill-rule:nonzero;stroke:none;stroke-width:2.70375002;marker:none;visibility:visible;display:inline;overflow:visible;enable-background:accumulate;opacity:1;stroke-linecap:butt;stroke-linejoin:miter;stroke-miterlimit:4;stroke-dasharray:none;stroke-dashoffset:0;stroke-opacity:1"
       sodipodi:type="star" />
  </g>
</svg>

<svg xmlns="http://www.w3.org/2000/svg" viewBox="0 0 64 64"><g color="#000"><path d="m0 4v30 28l2 2h30 30l2-2v-28-30h-32-32" fill="#5da422"/><path d="m2 0l-2 1v3h19.563 19.563 24.875v-3l-2-1h-22.875-19.563-17.563" fill="#a0e043"/></g><path d="m64 6l-2-2 2-1" fill="#7dc032"/><path d="m0 3v3l2-2" fill="#aee560"/><g color="#000"><g fill="#2d4c00"><path d="m17.864 10.403l-3.299 3.299 4.748 7.467c-.095.155-.199.314-.29.471-.934 1.618-1.587 3.309-1.994 5.04l-8.627 1.921v4.64l8.663 1.921c.457 1.937 1.192 3.839 2.247 5.546l-4.748 7.431 3.299 3.299 7.467-4.748c.158.098.309.196.471.29 1.618.934 3.309 1.587 5.04 1.994l1.921 8.627h4.64l1.921-8.663c1.937-.457 3.839-1.192 5.546-2.247l7.431 4.748 3.299-3.299-4.748-7.467-3.154-3.915c-2.212 4.759-7.02 8.08-12.614 8.08-7.687 0-13.919-6.232-13.919-13.919 0-5.594 3.324-10.402 8.08-12.614l-3.915-3.154z" fill-opacity=".636"/><path transform="matrix(.70711-.70711.70711.70711 0 0)" d="m2.828 33.669c7.202 0 13 5.798 13 13v7c0 7.202-5.798 13-13 13-7.202 0-13-5.798-13-13v-7c0-7.202 5.798-13 13-13" fill-opacity=".216"/></g><path transform="matrix(.67995 0 0 .67995 13.323 8.481)" d="M51 33A19 19 0 0 1 32 52 19 19 0 0 1 13 33 19 19 0 0 1 32 14 19 19 0 0 1 51 33" fill="#f3faea"/><path transform="matrix(.52306-.52306.52306.52306-3.809 37.494)" d="m42 31c0 .485-10.08 6.305-10.5 6.06-.42-.242-.42-11.882 0-12.12.42-.242 10.5 5.577 10.5 6.06" fill-opacity=".799" fill="#2d4c00"/></g></svg>
